icons/h-3.svg

<svg viewBox="0 0 24 24" fill="currentColor" xmlns="http://www.w3.org/2000/svg">
    <path d="M22 8L21.9984 10L19.4934 12.883C21.0823 13.3184 22.25 14.7728 22.25 16.5C22.25 18.5711 20.5711 20.25 18.5 20.25C16.674 20.25 15.1528 18.9449 14.8184 17.2166L16.7821 16.8352C16.9384 17.6413 17.6481 18.25 18.5 18.25C19.4665 18.25 20.25 17.4665 20.25 16.5C20.25 15.5335 19.4665 14.75 18.5 14.75C18.214 14.75 17.944 14.8186 17.7056 14.9403L16.3992 13.3932L19.3484 10H15V8H22ZM4 4V11H11V4H13V20H11V13H4V20H2V4H4Z"/>
</svg>

<svg xmlns="http://www.w3.org/2000/svg" viewBox="0 0 24 24">
    <g>
        <path fill="none" d="M0 0H24V24H0z"/>
        <path d="M22 8l-.002 2-2.505 2.883c1.59.435 2.757 1.89 2.757 3.617 0 2.071-1.679 3.75-3.75 3.75-1.826 0-3.347-1.305-3.682-3.033l1.964-.382c.156.806.866 1.415 1.718 1.415.966 0 1.75-.784 1.75-1.75s-.784-1.75-1.75-1.75c-.286 0-.556.069-.794.19l-1.307-1.547L19.35 10H15V8h7zM4 4v7h7V4h2v16h-2v-7H4v7H2V4h2z"/>
    </g>
</svg>
